img/landing-nalog/icons/ellipse-bottom.svg

<svg width="167" height="32" viewBox="0 0 167 32" fill="none" xmlns="http://www.w3.org/2000/svg">
<path d="M1.70615 2.40454C1.48273 2.24226 1.43317 1.92958 1.59546 1.70615C1.75774 1.48273 2.07042 1.43317 2.29385 1.59546L1.70615 2.40454ZM165 2L162.603 7.25243L159.253 2.55042L165 2ZM2.29385 1.59546C3.13784 2.20851 3.98521 2.81229 4.83589 3.40671L4.26311 4.22642C3.40739 3.62848 2.55506 3.02115 1.70615 2.40454L2.29385 1.59546ZM10.018 6.88533C11.7752 8.01713 13.5456 9.10952 15.3287 10.1618L14.8205 11.023C13.026 9.96403 11.2445 8.86479 9.47654 7.72603L10.018 6.88533ZM20.7645 13.2236C22.6041 14.2109 24.4564 15.156 26.321 16.0581L25.8855 16.9583C24.0082 16.05 22.1433 15.0986 20.2916 14.1047L20.7645 13.2236ZM31.994 18.6533C33.9089 19.4793 35.8359 20.2603 37.7744 20.9957L37.4197 21.9307C35.4671 21.19 33.5263 20.4033 31.5979 19.5715L31.994 18.6533ZM43.6539 23.0735C45.6328 23.7219 47.6229 24.3229 49.6237 24.8759L49.3574 25.8398C47.3412 25.2826 45.3361 24.677 43.3425 24.0238L43.6539 23.0735ZM55.6717 26.3926C57.6995 26.8496 59.7376 27.2574 61.7855 27.6152L61.6134 28.6003C59.5494 28.2397 57.4953 27.8287 55.4518 27.3682L55.6717 26.3926ZM67.9514 28.537C70.0102 28.7931 72.0783 28.9988 74.1551 29.1532L74.0809 30.1505C71.9876 29.9948 69.9031 29.7875 67.828 29.5294L67.9514 28.537ZM80.3822 29.4615C81.4195 29.4871 82.4588 29.5 83.5 29.5V30.5C82.4505 30.5 81.403 30.487 80.3575 30.4612L80.3822 29.4615ZM83.5 29.5C84.5412 29.5 85.5805 29.4871 86.6178 29.4615L86.6425 30.4612C85.597 30.487 84.5495 30.5 83.5 30.5V29.5ZM92.8449 29.1532C94.9217 28.9988 96.9898 28.7931 99.0486 28.537L99.172 29.5294C97.0969 29.7875 95.0124 29.9948 92.9191 30.1505L92.8449 29.1532ZM105.215 27.6152C107.262 27.2574 109.301 26.8496 111.328 26.3926L111.548 27.3682C109.505 27.8287 107.451 28.2397 105.387 28.6003L105.215 27.6152ZM117.376 24.8759C119.377 24.3229 121.367 23.7219 123.346 23.0735L123.657 24.0238C121.664 24.677 119.659 25.2826 117.643 25.8398L117.376 24.8759ZM129.226 20.9957C131.164 20.2603 133.091 19.4793 135.006 18.6533L135.402 19.5715C133.474 20.4033 131.533 21.19 129.58 21.9307L129.226 20.9957ZM140.679 16.0581C142.544 15.156 144.396 14.2109 146.236 13.2236L146.708 14.1047C144.857 15.0986 142.992 16.05 141.114 16.9583L140.679 16.0581ZM151.671 10.1618C153.454 9.10953 155.225 8.01714 156.982 6.88533L157.523 7.72603C155.755 8.86479 153.974 9.96404 152.179 11.023L151.671 10.1618ZM1.41231 2.80909C0.965464 2.48451 0.866342 1.85915 1.19091 1.41231C1.51549 0.965464 2.14085 0.866342 2.58769 1.19091L1.41231 2.80909ZM165 2L160.206 12.5049L153.506 3.10083L165 2ZM2.58769 1.19091C3.42924 1.80219 4.27412 2.40419 5.12228 2.99686L3.97672 4.63628C3.11848 4.03657 2.26366 3.42748 1.41231 2.80909L2.58769 1.19091ZM10.2888 6.46498C12.0405 7.5933 13.8054 8.68227 15.5829 9.73119L14.5664 11.4536C12.7662 10.3913 10.9791 9.28862 9.20579 8.14638L10.2888 6.46498ZM21.0009 12.783C22.8344 13.7671 24.6806 14.709 26.5388 15.608L25.6678 17.4084C23.784 16.497 21.913 15.5424 20.0551 14.5452L21.0009 12.783ZM32.192 18.1942C34.1002 19.0173 36.0202 19.7955 37.9517 20.5282L37.2424 22.3982C35.2827 21.6548 33.335 20.8654 31.3999 20.0306L32.192 18.1942ZM43.8096 22.5983C45.7811 23.2443 47.7637 23.8431 49.7569 24.3939L49.2242 26.3217C47.2004 25.7624 45.1878 25.1546 43.1869 24.4989L43.8096 22.5983ZM55.7816 25.9049C57.8015 26.3601 59.8317 26.7663 61.8715 27.1227L61.5273 29.0929C59.4553 28.7308 57.3933 28.3182 55.3419 27.8559L55.7816 25.9049ZM68.0131 28.0408C70.0638 28.2959 72.1236 28.5008 74.1922 28.6546L74.0438 30.6491C71.9423 30.4928 69.8496 30.2847 67.7663 30.0255L68.0131 28.0408ZM80.3946 28.9617C81.4277 28.9872 82.4629 29 83.5 29V31C82.4464 31 81.3948 30.987 80.3452 30.9611L80.3946 28.9617ZM83.5 29C84.5371 29 85.5723 28.9872 86.6054 28.9617L86.6548 30.9611C85.6052 30.987 84.5536 31 83.5 31V29ZM92.8078 28.6546C94.8764 28.5008 96.9362 28.2959 98.9869 28.0408L99.2337 30.0255C97.1504 30.2847 95.0577 30.4928 92.9562 30.6491L92.8078 28.6546ZM105.128 27.1227C107.168 26.7663 109.198 26.3601 111.218 25.9049L111.658 27.8559C109.607 28.3182 107.545 28.7308 105.473 29.0929L105.128 27.1227ZM117.243 24.3939C119.236 23.8431 121.219 23.2443 123.19 22.5983L123.813 24.4989C121.812 25.1546 119.8 25.7624 117.776 26.3217L117.243 24.3939ZM129.048 20.5282C130.98 19.7955 132.9 19.0173 134.808 18.1942L135.6 20.0306C133.665 20.8654 131.717 21.6548 129.758 22.3982L129.048 20.5282ZM140.461 15.608C142.319 14.709 144.166 13.7671 145.999 12.783L146.945 14.5452C145.087 15.5424 143.216 16.497 141.332 17.4084L140.461 15.608ZM151.417 9.7312C153.195 8.68227 154.959 7.59331 156.711 6.46499L157.794 8.14638C156.021 9.28862 154.234 10.3913 152.434 11.4536L151.417 9.7312Z" fill="#007A65"/>
</svg>

<svg width="167" height="32" fill="none" xmlns="http://www.w3.org/2000/svg"><path d="M1.706 2.405a.5.5 0 11.588-.81l-.588.81zM165 2l-2.397 5.252-3.35-4.702L165 2zM2.294 1.595a166.29 166.29 0 002.542 1.812l-.573.82a171.522 171.522 0 01-2.557-1.822l.588-.81zm7.724 5.29a159.713 159.713 0 005.31 3.277l-.508.861a160.601 160.601 0 01-5.343-3.297l.541-.84zm10.747 6.339c1.84.987 3.691 1.932 5.556 2.834l-.436.9a149.586 149.586 0 01-5.593-2.853l.473-.881zm11.229 5.43a142.29 142.29 0 005.78 2.342l-.354.935a140.662 140.662 0 01-5.822-2.36l.396-.918zm11.66 4.42a132.75 132.75 0 005.97 1.802l-.267.964a133.7 133.7 0 01-6.014-1.816l.31-.95zm12.018 3.319c2.028.457 4.066.864 6.114 1.222l-.173.985c-2.064-.36-4.118-.771-6.161-1.232l.22-.975zm12.28 2.144c2.058.256 4.126.462 6.203.616l-.074.998a126.941 126.941 0 01-6.253-.622l.123-.992zm12.43.925c1.037.025 2.077.038 3.118.038v1c-1.05 0-2.097-.013-3.142-.039l.024-1zm3.118.038c1.041 0 2.08-.013 3.118-.038l.025 1c-1.046.025-2.094.038-3.143.038v-1zm9.345-.347a125.82 125.82 0 006.204-.616l.123.992c-2.075.259-4.16.466-6.253.622l-.074-.998zm12.37-1.538c2.047-.358 4.086-.765 6.113-1.222l.22.975c-2.043.46-4.097.872-6.161 1.232l-.172-.985zm12.161-2.74a132.72 132.72 0 005.97-1.802l.311.95a133.507 133.507 0 01-6.014 1.817l-.267-.964zm11.85-3.88a140.02 140.02 0 005.78-2.342l.396.919a140.22 140.22 0 01-5.822 2.359l-.354-.935zm11.453-4.937a148.676 148.676 0 005.557-2.834l.472.88a148.515 148.515 0 01-5.594 2.854l-.435-.9zm10.992-5.896a159.589 159.589 0 005.311-3.277l.541.841a160.114 160.114 0 01-5.344 3.297l-.508-.861zM1.412 2.809a1 1 0 011.176-1.618L1.412 2.809zM165 2l-4.794 10.505-6.7-9.404L165 2zM2.588 1.19c.841.612 1.686 1.214 2.534 1.807l-1.145 1.64c-.859-.6-1.713-1.21-2.565-1.828l1.176-1.618zm7.7 5.275a159.018 159.018 0 005.295 3.266l-1.017 1.723a160.99 160.99 0 01-5.36-3.308l1.083-1.681zm10.713 6.318c1.833.984 3.68 1.926 5.538 2.825l-.871 1.8a150.057 150.057 0 01-5.613-2.863l.946-1.762zm11.191 5.411c1.908.823 3.828 1.602 5.76 2.334l-.71 1.87a141.019 141.019 0 01-5.842-2.367l.792-1.837zm11.618 4.404c1.971.646 3.954 1.245 5.947 1.796l-.533 1.928a134.059 134.059 0 01-6.037-1.823l.623-1.9zm11.972 3.307c2.02.455 4.05.861 6.09 1.218l-.345 1.97a129.676 129.676 0 01-6.185-1.237l.44-1.951zm12.231 2.136c2.05.255 4.11.46 6.18.614l-.15 1.994a127.331 127.331 0 01-6.277-.623l.247-1.985zm12.382.92c1.033.026 2.068.039 3.105.039v2c-1.054 0-2.105-.013-3.155-.039l.05-2zM83.5 29c1.037 0 2.072-.013 3.105-.038l.05 2c-1.05.025-2.101.038-3.155.038v-2zm9.308-.345a127.03 127.03 0 006.179-.614l.247 1.985c-2.084.259-4.176.467-6.278.623l-.148-1.994zm12.32-1.532c2.04-.357 4.07-.763 6.09-1.218l.44 1.95a129.56 129.56 0 01-6.185 1.238l-.345-1.97zm12.115-2.73a131.96 131.96 0 005.947-1.795l.623 1.9a134.008 134.008 0 01-6.037 1.824l-.533-1.928zm11.805-3.865a136.58 136.58 0 005.76-2.334l.792 1.837a141.337 141.337 0 01-5.842 2.367l-.71-1.87zm11.413-4.92a146.47 146.47 0 005.538-2.825l.946 1.762a149.991 149.991 0 01-5.613 2.863l-.871-1.8zm10.956-5.877a158.825 158.825 0 005.294-3.266l1.083 1.681a160.852 160.852 0 01-5.36 3.308l-1.017-1.723z" fill="#007A65"/></svg>
